brandFactory_export/1.Light/Tormenta _1Light.svg

<?xml version="1.0" encoding="UTF-8"?>
<svg width="24px" height="24px" viewBox="0 0 24 24" version="1.1" xmlns="http://www.w3.org/2000/svg" xmlns:xlink="http://www.w3.org/1999/xlink">
    <title>1.Light/Tormenta _1Light</title>
    <g id="Symbols" stroke="none" stroke-width="1" fill="none" fill-rule="evenodd">
        <g id="1.Light/Tormenta-_1Light" fill="#5CB615" fill-rule="nonzero">
            <path d="M17.4151261,15.9663866 L16.1512605,15.9731092 L16.5915966,15.5092437 C16.7159664,15.3781513 16.7596639,15.1932773 16.7092437,15.0218487 C16.6588235,14.8470588 16.5176471,14.7159664 16.3462185,14.6789916 L12.594958,13.8319328 L14.7663866,8.16806723 C14.8537815,7.94621849 14.7697479,7.6907563 14.5680672,7.56302521 C14.3697479,7.43865546 14.107563,7.46890756 13.9428571,7.64705882 L6.66554622,15.5630252 C6.5512605,15.687395 6.51092437,15.8621849 6.55462185,16.0302521 L5.07226891,16.0369748 C3.84537815,16.0369748 0.988235294,15.6369748 0.988235294,11.9260504 C0.988235294,9.84201681 1.8789916,8.52773109 3.63697479,8.02352941 C3.8487395,7.96302521 3.99663866,7.76470588 3.99663866,7.54285714 L3.98991597,7.40504202 C3.98991597,1.46218487 9.11596639,0.998319328 10.6857143,0.998319328 C11.5764706,0.998319328 16.0672269,1.20336134 17.1361345,5.24033613 C17.1932773,5.45546218 17.3815126,5.60336134 17.6,5.61008403 C19.112605,5.65378151 22.6386555,6.24201681 22.6386555,10.7731092 C22.6352941,15.5932773 18.6420168,15.9663866 17.4151261,15.9663866 Z M11.4655462,16.9815126 C11.5159664,16.8470588 11.5058824,16.6957983 11.4386555,16.5680672 C11.3714286,16.4403361 11.2504202,16.3495798 11.112605,16.3193277 L7.97310924,15.6067227 L12.9142857,10.2285714 L11.4655462,14.010084 C11.4117647,14.1445378 11.4218487,14.2991597 11.4890756,14.4235294 C11.5563025,14.5512605 11.6773109,14.6453782 11.8151261,14.6756303 L15.2672269,15.4554622 L9.94957983,21.0352941 L11.4655462,16.9815126 Z M17.9865546,4.63193277 C16.5747899,0.225210084 11.6739496,0 10.6857143,0 C9.41512605,0 3.13613445,0.349579832 3.00168067,7.17983193 C1.74117647,7.64369748 0,8.84369748 0,11.9226891 C0,15.6907563 2.62184874,17.0319328 5.07226891,17.0319328 L9.58319328,17.0117647 C9.6,17.0117647 9.61344538,17.005042 9.62689076,17.0016807 L10.3394958,17.1630252 L8.18823529,22.9445378 C8.10420168,23.1663866 8.18823529,23.4151261 8.38655462,23.5428571 C8.46722689,23.5932773 8.55798319,23.6201681 8.6487395,23.6201681 C8.77983193,23.6201681 8.90756303,23.5663866 9.00504202,23.4689076 L15.1932773,16.9747899 L17.4151261,16.9613445 C18.4504202,16.9613445 23.6201702,16.6621849 23.6201702,10.7697479 C23.6235294,5.62689076 19.687395,4.76302521 17.9865546,4.63193277 Z" id="Tormenta-_1Light"></path>
        </g>
    </g>
</svg>

<svg width="24" height="24" viewBox="0 0 24 24" xmlns="http://www.w3.org/2000/svg"><path d="M17.415 15.966l-1.264.007.44-.464a.5.5 0 00-.245-.83l-3.751-.847 2.171-5.664a.502.502 0 00-.198-.605.493.493 0 00-.625.084l-7.277 7.916a.5.5 0 00-.111.467l-1.483.007c-1.227 0-4.084-.4-4.084-4.11 0-2.085.891-3.4 2.649-3.903a.501.501 0 00.36-.481l-.007-.138c0-5.943 5.126-6.407 6.696-6.407.89 0 5.381.205 6.45 4.242a.494.494 0 00.464.37c1.513.044 5.039.632 5.039 5.163-.004 4.82-3.997 5.193-5.224 5.193zm-5.95 1.016a.508.508 0 00-.026-.414.488.488 0 00-.326-.249l-3.14-.712 4.941-5.378-1.448 3.781a.494.494 0 00.023.414.493.493 0 00.326.252l3.452.78-5.317 5.58 1.516-4.054zm6.522-12.35C16.575.225 11.674 0 10.686 0c-1.27 0-7.55.35-7.684 7.18C1.742 7.644 0 8.844 0 11.923c0 3.768 2.622 5.109 5.072 5.109l4.511-.02c.017 0 .03-.007.044-.01l.712.161-2.15 5.782a.5.5 0 00.46.675.505.505 0 00.356-.151l6.188-6.494 2.222-.014c1.035 0 6.205-.299 6.205-6.191.004-5.143-3.933-6.007-5.633-6.138z" fill="#5CB615" fill-rule="nonzero"/></svg>
